lib/brands/icons/world-pay.svg

<svg xmlns="http://www.w3.org/2000/svg" fill="none" aria-hidden="true" viewBox="0 0 48 48"><g id="world_pay-Icon"><circle id="bg" cx="24" cy="24" r="21" fill="#F11E15"/><path id="world_pay" fill="white" fill-rule="evenodd" d="M28.5257 37.8151C29.9696 37.1597 31.5592 36.3522 33.0995 35.3976C31.6113 37.1108 30.0164 37.5648 28.5257 37.8151ZM24.9926 40.8415C24.8469 40.8415 23.6033 40.8415 23.6033 40.3874C23.6033 40.1372 24.0013 39.327 24.3499 39.229C25.094 38.9245 26.6862 38.5195 26.7851 38.5195C26.9334 38.5195 28.2291 38.6743 28.3748 38.6743C28.4737 38.6743 29.4206 38.6201 29.9696 38.473C30.6122 38.3182 31.411 38.0189 32.1551 37.5648C32.9018 37.1107 33.9945 36.151 34.4915 35.3434C34.7881 34.8893 34.9388 34.2855 35.2901 33.8804C35.735 33.2793 36.5805 32.7711 37.2752 32.1183C37.9724 31.4088 38.6723 30.6554 39.3149 29.8504C37.9724 36.2026 29.8188 40.8415 24.9926 40.8415ZM28.0313 6.30448C30.5654 6.8592 33.4507 7.9635 35.9327 10.4894C36.7314 11.2944 37.4288 12.4064 37.7254 13.2604C37.8711 13.6113 37.8711 14.1686 38.1235 14.5195C38.5215 15.1284 39.2161 15.6289 39.713 16.2868C40.3608 16.9912 40.7563 17.7497 41.1076 18.5547C41.2533 18.805 41.3053 19.1585 41.4536 19.463C41.6513 19.8629 42 21.7799 42 22.4894C42 23.9523 41.5057 25.7661 40.8552 27.1774C40.8552 27.229 40.9099 27.229 40.9099 27.3787V28.6378C40.3609 36.4064 31.1612 42 25.3905 42C24.6959 42 22.7082 41.8994 22.7082 40.4881C22.7082 40.3333 22.8097 39.8817 22.9086 39.5283C21.8106 39.6831 19.672 40.0856 18.4284 40.0856C17.4891 40.0856 13.1599 40.0366 13.1599 37.6655C13.1599 35.444 17.0391 35.2943 17.7858 35.2943C19.8724 35.2943 22.0603 35.8981 24.1989 36.9069C23.8477 37.0101 23.2051 37.2114 23.1063 37.2114C22.9554 37.2114 22.7576 37.0566 22.5573 37.0101C21.168 36.5019 19.5732 36.2025 18.1318 36.2025C17.2888 36.2025 17.1379 36.1509 16.1441 36.4064C16.0452 36.4064 14.3047 36.8605 14.3047 37.5648C14.3047 38.0654 15.6966 38.3698 15.9932 38.4188C16.589 38.5195 17.8326 38.6201 17.9315 38.6201C26.7851 38.6201 40.5118 31.1584 40.5118 22.2339C40.5118 20.5723 39.7651 18.2038 38.2691 16.6867C38.1702 17.3447 38.0246 18.049 37.7722 18.7586C37.6265 19.2127 37.2285 20.0177 37.2285 20.1183C37.2285 20.1183 39.713 22.8893 39.713 23.4982C39.713 23.8517 39.1693 25.41 39.1693 25.4616C38.6724 24.1019 37.9725 22.7396 36.5806 21.3799C36.3829 21.5812 36.1851 21.8804 35.9848 22.1359C35.735 22.4893 35.4358 22.8428 35.1392 23.1937C34.4914 23.9523 33.0007 25.2604 33.0007 25.41C33.0007 25.41 34.788 27.229 35.389 29.3447C35.4879 29.6491 35.6362 30.2503 35.6362 30.3535C35.6362 30.6553 34.6423 31.3133 34.6423 31.3623C34.5903 29.6491 33.8956 27.8327 32.0536 26.1196C29.9176 27.7321 27.6802 29.0454 25.5416 30.1006C26.8346 31.2126 27.5813 32.8252 27.5813 33.9837C27.5813 34.5384 27.2821 35.751 27.0323 35.8981C26.7331 36.1019 26.3897 36.2025 26.0384 36.3057C26.4365 35.7975 26.7851 34.639 26.7851 34.1385C26.7851 33.2303 26.1893 31.8164 25.1928 31.0578C24.9457 30.9082 24.5971 30.5547 24.4983 30.5547C24.35 30.5547 23.1063 31.1095 22.4117 31.3623C21.613 31.6668 20.77 31.917 19.9245 32.1673C17.3878 32.9258 14.9993 33.3799 12.5641 33.3799C11.6197 33.3799 7.48816 33.2793 7.48816 31.0088C7.48816 27.6315 15.1528 27.3271 16.1909 27.3271C18.4804 27.3271 20.6711 27.5825 23.0075 28.6378C22.5574 28.7874 21.7118 29.1408 21.6129 29.1408C21.4646 29.1408 18.8785 28.3874 16.5422 28.3874C15.4963 28.3874 14.2058 28.4906 13.212 28.6867C12.4132 28.8415 11.6197 29.0454 10.9224 29.3447C10.6727 29.3963 8.83324 30.2039 8.83324 30.9082C8.83324 31.0089 9.12986 31.2126 9.3302 31.3133C10.3267 31.8164 11.2216 31.7674 12.2154 31.7674C21.6129 31.7674 36.0316 24.2516 36.8798 16.4365V15.1774C36.4297 10.0843 28.674 6.80502 24.8937 6.80502C24.7948 6.80502 24.1522 6.85916 23.7489 6.95462C24.0013 7.05782 24.2978 7.05785 24.5502 7.15847C24.7479 7.21266 24.9926 7.31332 25.2449 7.40878C25.643 7.56359 26.3376 7.91703 26.7851 8.31695C27.1311 8.6214 27.3288 9.07547 27.6801 9.32574C27.9298 9.58117 28.4268 9.52959 28.8248 9.68439C30.1153 10.0843 31.7101 10.688 33.0526 11.2943C33.5964 11.5936 34.2911 11.8981 34.8921 12.2516C35.0924 12.4064 35.2381 12.7057 35.389 12.956C35.6362 13.361 35.9328 14.0189 36.0316 14.5736C33.4507 12.6024 30.862 11.5936 28.2759 10.7396H28.1303C28.2291 12.1019 27.68 13.4617 26.733 14.8239C29.5715 15.5825 32.5506 16.6868 35.4879 18.7586C35.337 19.1095 35.1393 19.512 34.8921 19.8629C33.6485 18.9547 32.3059 18.2503 31.0623 17.6465C30.7631 17.4995 26.5873 15.9334 25.9395 15.9334C25.7886 15.9334 24.7948 16.9421 24.251 17.3962C22.9085 18.5031 21.566 19.3623 20.2209 20.1673C23.8477 20.6755 27.4823 21.4806 31.1091 23.8981C30.8619 24.1484 30.313 24.6567 30.1673 24.6567C30.0684 24.6567 29.1214 23.9523 28.575 23.6969C26.0384 22.4352 21.2148 21.2303 18.2827 21.2303C18.0329 21.2303 15.1528 22.4894 14.4503 22.6881C12.4132 23.2944 10.1757 24.0477 8.09174 24.0477C7.38928 24.0477 6 24.0013 6 22.8429C6 20.5724 13.9066 20.0177 14.4503 20.0177H16.1909C14.9473 20.5208 13.4591 21.0755 12.2675 21.3799C11.1228 21.6844 9.93117 21.8804 8.83324 22.2339C8.63291 22.2855 8.43517 22.4352 8.23744 22.5384C8.23744 22.5384 8.19059 22.59 8.33629 22.59C8.43516 22.59 10.0769 22.3345 10.9693 22.1359C15.4963 21.0264 20.3667 19.2126 24.8468 15.0277C25.9395 13.9647 26.7331 12.6567 26.9855 11.4982V10.4894C26.8346 9.37997 25.2449 8.22149 24.251 7.91704C23.6032 7.71321 22.3595 7.46295 22.2138 7.46295C21.9615 7.46295 21.6129 7.61259 21.3657 8.01766C22.9553 8.37114 24.7948 8.01762 26.1893 10.0352C26.1893 10.0352 26.2387 10.0843 26.1893 10.1849C25.7886 10.0353 20.9157 8.87166 20.1222 8.87166C19.8256 8.87166 17.4892 10.5384 16.9402 10.8893C15.4494 11.7975 13.9066 12.6567 12.4132 13.41L17.536 13.4616C19.7709 13.6113 22.3127 13.9158 24.597 14.3699C24.4982 14.4189 23.6032 15.3787 23.4054 15.3787C23.3066 15.3787 21.7118 15.0742 20.9157 14.9735C19.4743 14.7697 17.9835 14.7233 16.4901 14.6201L10.03 14.7698C9.67878 14.7233 8.98418 14.6743 8.98418 14.0654C8.98418 13.6113 9.5279 13.312 9.93116 13.1572C10.2278 13.0566 10.5738 12.8605 10.8704 12.7573C14.0549 11.3976 17.3356 9.58116 20.5722 7.51193C20.4733 7.46291 20.2679 7.46295 20.169 7.46295C20.0233 7.46295 19.6252 7.51193 19.3286 7.61256C19.3755 7.66674 19.4274 7.66673 19.4743 7.66673C19.0294 7.917 18.2827 8.41757 18.1318 8.41757C17.7858 8.41757 17.2888 7.96344 17.2888 7.66673C17.2888 6.75854 19.3286 6.70439 19.4743 6.70439C21.5114 6.65537 21.6649 6.75856 21.8106 6.75856C21.9095 6.75856 22.7577 6.30448 23.3067 6.20385C24.1002 6.00003 24.4982 6 25.2449 6C26.0905 6 27.0843 6.10065 28.0313 6.30448Z" clip-rule="evenodd"/></g></svg>

<svg xmlns="http://www.w3.org/2000/svg" fill="none" aria-hidden="true" viewBox="0 0 48 48"><circle cx="24" cy="24" r="21" fill="#F11E15"/><path fill="#fff" fill-rule="evenodd" d="M28.526 37.815a40.646 40.646 0 0 0 4.573-2.417c-1.488 1.713-3.083 2.167-4.573 2.417Zm-3.533 3.027c-.146 0-1.39 0-1.39-.455 0-.25.398-1.06.747-1.158.744-.304 2.336-.71 2.435-.71.148 0 1.444.155 1.59.155.099 0 1.046-.054 1.595-.201a7.874 7.874 0 0 0 2.185-.908c.747-.454 1.84-1.414 2.337-2.222.296-.454.447-1.058.798-1.463.445-.6 1.29-1.109 1.985-1.762a29.706 29.706 0 0 0 2.04-2.268c-1.343 6.353-9.496 10.992-14.322 10.992ZM28.03 6.304c2.534.555 5.42 1.66 7.902 4.185.798.805 1.496 1.917 1.792 2.771.146.351.146.909.398 1.26.399.608 1.093 1.109 1.59 1.767.648.704 1.043 1.463 1.395 2.268.145.25.197.604.346.908.197.4.546 2.317.546 3.026 0 1.463-.494 3.277-1.145 4.688 0 .052.055.052.055.202v1.259C40.36 36.406 31.16 42 25.39 42c-.694 0-2.682-.1-2.682-1.512 0-.155.102-.606.2-.96-1.097.155-3.236.558-4.48.558-.939 0-5.268-.05-5.268-2.42 0-2.222 3.88-2.372 4.626-2.372 2.086 0 4.274.604 6.413 1.613-.351.103-.994.304-1.093.304-.15 0-.348-.154-.549-.2-1.389-.51-2.984-.809-4.425-.809-.843 0-.994-.051-1.988.204-.099 0-1.84.455-1.84 1.159 0 .5 1.393.805 1.69.854.595.1 1.839.201 1.938.201 8.853 0 22.58-7.462 22.58-16.386 0-1.662-.747-4.03-2.243-5.547a11.042 11.042 0 0 1-.497 2.072c-.145.454-.544 1.259-.544 1.36 0 0 2.485 2.77 2.485 3.38 0 .353-.544 1.911-.544 1.963-.497-1.36-1.197-2.722-2.588-4.082-.198.201-.396.5-.596.756-.25.353-.55.707-.846 1.058-.648.758-2.138 2.066-2.138 2.216 0 0 1.787 1.819 2.388 3.935.099.304.247.905.247 1.009 0 .301-.994.96-.994 1.008-.052-1.713-.746-3.53-2.588-5.242-2.136 1.612-4.374 2.925-6.512 3.98 1.293 1.113 2.04 2.725 2.04 3.884 0 .554-.3 1.767-.55 1.914-.299.204-.642.304-.994.408.398-.508.747-1.667.747-2.167 0-.909-.596-2.323-1.592-3.081-.247-.15-.596-.503-.695-.503-.148 0-1.392.555-2.086.807-.799.305-1.642.555-2.488.805-2.536.759-4.925 1.213-7.36 1.213-.944 0-5.076-.1-5.076-2.371 0-3.378 7.665-3.682 8.703-3.682 2.29 0 4.48.255 6.817 1.31-.45.15-1.296.504-1.395.504-.148 0-2.735-.754-5.07-.754-1.047 0-2.337.104-3.331.3-.799.154-1.592.358-2.29.658-.25.051-2.089.859-2.089 1.563 0 .1.297.305.497.405.997.503 1.892.454 2.885.454 9.398 0 23.817-7.515 24.665-15.33v-1.26c-.45-5.093-8.206-8.372-11.986-8.372-.1 0-.742.054-1.145.15.252.103.549.103.801.203.198.055.443.155.695.25.398.156 1.093.509 1.54.909.346.304.544.758.895 1.009.25.255.747.204 1.145.358a39.14 39.14 0 0 1 4.228 1.61c.543.3 1.238.604 1.84.958.2.154.345.454.496.704.247.405.544 1.063.643 1.618-2.581-1.972-5.17-2.98-7.756-3.834h-.146c.1 1.362-.45 2.722-1.397 4.084 2.838.758 5.818 1.863 8.755 3.935-.151.35-.349.753-.596 1.104-1.244-.908-2.586-1.613-3.83-2.216-.299-.147-4.475-1.714-5.123-1.714-.15 0-1.144 1.01-1.688 1.463-1.343 1.107-2.685 1.966-4.03 2.771 3.627.508 7.261 1.314 10.888 3.731-.247.25-.796.759-.942.759-.099 0-1.046-.705-1.592-.96-2.537-1.262-7.36-2.467-10.292-2.467-.25 0-3.13 1.26-3.833 1.458-2.037.606-4.274 1.36-6.358 1.36C7.389 24.048 6 24 6 22.843c0-2.27 7.907-2.825 8.45-2.825h1.74c-1.243.503-2.73 1.058-3.923 1.362-1.144.304-2.336.5-3.434.854-.2.051-.398.201-.596.304 0 0-.046.052.1.052.098 0 1.74-.256 2.632-.454 4.527-1.11 9.398-2.923 13.878-7.108 1.092-1.063 1.886-2.371 2.138-3.53V10.49c-.15-1.109-1.74-2.268-2.734-2.572-.648-.204-1.892-.454-2.037-.454-.252 0-.601.15-.848.555 1.59.353 3.429 0 4.823 2.017 0 0 .05.05 0 .15-.4-.15-5.273-1.313-6.067-1.313-.296 0-2.633 1.666-3.182 2.017a65.533 65.533 0 0 1-4.527 2.521l5.123.052c2.235.15 4.777.454 7.061.908-.099.049-.994 1.009-1.192 1.009-.098 0-1.693-.305-2.49-.405-1.44-.204-2.931-.25-4.425-.354l-6.46.15c-.351-.047-1.046-.096-1.046-.705 0-.454.544-.753.947-.908.297-.1.643-.296.94-.4 3.184-1.36 6.465-3.176 9.701-5.245-.099-.05-.304-.049-.403-.049-.146 0-.544.049-.84.15.046.054.098.054.145.054-.445.25-1.191.75-1.342.75-.346 0-.843-.454-.843-.75 0-.908 2.04-.963 2.185-.963 2.037-.049 2.19.055 2.337.055.099 0 .947-.455 1.496-.555C24.1 6 24.498 6 25.245 6c.845 0 1.84.1 2.786.304Z" clip-rule="evenodd"/></svg>
